!!!!SEGMENT: pl-wtm--iii-41-529_bauerfeind-wladyslaw--powitanie.krn
!!!cenid: 19xx:29
!!!COM: Bauerfeind, Władysław
!!!COM-rismID: pe50046019
!!!CDT: 1880-1939
!!!CNT: Polish
!!!OTL: Powitanie
!!!PDT:
!!!AGN: Secular
!!!YEC: Copyright 2022 Narodowy Instytut Fryderyka Chopina (https://polishscores.org)
!!!YEM: License CC-BY-4.0 (https://creativecommons.org/licenses/by/4.0)
!!!SMS-siglum: PL-Wtm
!!!SMS-shelfmark: III.41.529
!!!SMS-variant:
!!!SMS-altvar:
!!!SMS-shelfwork: W
!!!NIFC-rismSourceID: 1001148520
!!!NIFC-rismChildID: 1001148520
!!!NIFC-islandoraID: pl-wtm:68092
!!!URL-pdf-islandora: https://repozytorium.nifc.pl/islandora/object/pl-wtm%3A68092/datastream/PDF/view
!!!URL-scan: https://polish.musicsources.pl/pl/lokalizacje/galeria/druki-muzyczne/17433/2 @EN{Scan on Polish Music Sources Website} @PL{Skany w portalu Dziedzictwo Muzyki Polskiej w otwartym dostępie}
!!!IIIF:
!!!ONB-nifc:
!!!AIN: 1 forte
!!!key: E
**kern	**kern	**dynam
*part1	*part1	*part1
*staff2	*staff1	*
*I"Piano	*I"Piano	*
*I'P-no	*I'P-no	*
*Iforte	*Iforte	*
*ICklav	*ICklav	*
*clefF4	*clefG2	*
*k[f#c#g#d#a#]	*k[f#c#g#d#a#]	*
*E:	*E:	*
*M4/4	*M4/4	*
*met(c)	*met(c)	*
*>[A,A1,A,A2,B,B1,B,B2,C,C1,C,C2,D,D1,D,D2,E]	*	*
=1	=1	=1
*>A	*	*
!	!LO:TX:a:t=(A)ndantino eroico e con gran solennita.	!
2BB\ 2F#	2B/ 2d#	ff <
4.BB/ 4.D#	4.F#/ 4.B	.
8BB\ 8F#	8B/ 8d#	.
=2	=2	=2
[2.FF#/ (>2.D#	(2.A#/ (2.f#	.
4FF#/] 4F#)	4c#/) 4e)	.
=3	=3	=3
4BB\ 4F#	4B/ 4d#	.
4BB/ 4D#	4B/ 4f#	.
4.GG#/ 4.D# 4.G#	4.B/ 4.d# 4.b	.
8GG#/ 8D# 8G#	8B/ 8d#	[[
=4	=4	=4
1CC# 1C#	1E#X 1G# 1B 1c#	>]
=5	=5	=5
4.FF#/	4.En/ 4.A# 4.c# 4.e	<
8FF#/	8E/ 8F# 8A# 8c#	.
2EE/	8E/L 8F# 8A# 8c#	.
.	8E/ 8F# 8A# 8c#	.
.	8E/ 8F# 8A# 8d#	.
.	8E/J 8F# 8A# 8e	.
!!LO:LB:g=original
=6	=6	=6
4.DD#/ 4.D#	4.F#/ 4.B 4.f#	.
8DD#/ 8D#	8F#/ 8B 8f#	.
4DDn/ 4Dn	4F#/ 4B#X 4f#	.
4DD/ 4D	4G#/ 4B# 4g#	.
=7	=7	=7
4CC#/ 4C#	4A#/ 4c# 4f# 4a#	.
4CC#/ 4C#	8.A#/L 8.c#	.
.	16A#/Jk 16c#	.
4CC#:/ 4GG#: 4E#X:	4Bn/ 4c# 4e#X 4a#	.
4E#\	4B/ 4c# 4e# 4g#	[[
=8	=8	=8
*>A1	*	*
4FF#/ 4F#	2.A#/ 2.c# 2.f#	>
8.CC#/L 8.C#	.	.
16CC#/Jk 16C#	.	.
4FFF#/ 4FF#	.	.
4r	8.f#/L	.
.	16e#X/Jk	]]
=9:|!	=9:|!	=9:|!
*>A2	*	*
4FF#/ 4F#	2.A#/ 2.c# 2.f#	.
8.CC#/L 8.C#	.	.
16CC#/Jk 16C#	.	.
4FFF#/ 4FF#	.	.
4r	8.f#/L	.
.	16f#/Jk	.
!!LO:LB:g=original
=10|!	=10|!	=10|!
*>B	*	*
4.FF#:/ 4.C#: 4.A#:	4.e/ 4.f# 4.a# 4.cc#	fff <
8A#\	8e/ 8f# 8a# 8cc#	.
8.D#\L 8.F# 8.An 8.cn	8.d#/L 8.f# 8.an 8.ccn	.
16D#\K 16F# 16A 16c	16d#/K 16f# 16a 16cc	.
8D#\ 8F# 8A 8c	8d#/ 8f# 8a 8cc 8dd#	.
8D#\J 8F# 8A 8c	8d#/J 8f# 8a 8cc 8dd#	[[
=11	=11	=11
4E\ 4F# 4A#X 4c#X	4e/ 4f# 4a#X 4cc#X	>
4F#\	4f#/	.
(8GG#/L 8G#	2r	]]
8FF#/ 8F#	.	.
8EE#X/ 8E#X	.	.
8FF#/J) 8F#	.	.
=12	=12	=12
4.FF#:/ 4.C#: 4.A#:	4.e/ 4.f# 4.a# 4.cc#	<
8A#\	8e/ 8f# 8a# 8cc#	.
8.D#\L 8.F# 8.An 8.cn	8.f#/L 8.an 8.ccn 8.dd#	.
16D#\K 16F# 16A 16c	16f#/K 16a 16cc 16dd#	.
8F#\ 8A 8c 8d#	8f#/ 8a 8cc 8dd# 8ff#	.
8F#\J 8A 8c 8d#	8f#/J 8a 8cc 8dd# 8ff#	[[
!!LO:LB;g=original
=13	=13	=13
4F#\ 4A#X 4c#X 4e	4f#\ 4a#X 4cc#X 4ee	>
4F#\	4f#/	.
(8FFF#/L 8FF#	2r	] < [[
8FFF##X/ 8FF##X	.	.
8GGG#/ 8GG#	.	.
8AAA#/J 8AA#)	.	.
=14	=14	=14
!	!LO:TX:B:i:b:t=Forte possibile	!
4.BBB/ 4.BB	4.B/ 4.d# 4.f# 4.b	fff
8DD#/ 8D#	8F#/ 8B 8f#	.
4DD#/ 4D#	4F#/ 4B 4f#	.
4BBB/ 4BB	4F#/ 4B 4d#	.
=15	=15	=15
2EE/ 2E	2G#/ 2B 2e 2g#	.
8.EE#X/L 8.E#X	8.B/L 8.dn 8.e#X 8.b	.
16EE#/Jk 16E#	16B/K 16d 16e# 16b	.
8EE#/L 8E#	8B/ 8d 8e# 8a#	.
8EE#/J 8E#	8B/J 8d 8e# 8g#	.
=16	=16	=16
4.FF#/ 4.F#	4.B/ 4.d#X 4.f#	>
8FF#/ 8F#	8B/ 8d#	.
4FFF#/ 4FF#	4E/ 4A# 4d#	.
4FFF#/ 4FF#	4E/ 4A# 4c#	.
!!LO:LB:g=original
=17	=17	=17
*>B1	*	*
4BBB/ 4BB	2.D#/ 2.F# 2.B	.
8.FFF#/L 8.FF#	.	.
16FFF#/Jk 16FF#	.	.
*8ba	*	*
4BBBB/ 4BBB	.	.
*X8ba	*	*
4r	8.f#/L	]
.	16f#/Jk	.
=18:|!	=18:|!	=18:|!
*>B2	*	*
4BBB/ 4BB	2.D#/ 2.F# 2.B	.
8.FFF#/L 8.FF#	.	.
16FFF#/Jk 16FF#	.	.
*8ba	*	*
4BBBB/ 4BBB	.	.
*X8ba	*	*
4r	8.B/L	.
.	16B/Jk	.
=19||	=19||	=19||
*>C	*	*
!	!LO:TX:b:i:t=rit.	!
4.EE:/ 4.BB: 4.G#:	4.B/ 4.e 4.g# 4.b	<
8G#\	8B/ 8e 8g# 8b	.
4EE:/ 4BB: 4Gn:	4B/ 4e 4gn 4b	.
4G\	4B/ 4e 4g 4b	.
=20	=20	=20
(8qBBB\ 8qBB	.	.
2BB\) 2F#	2B/ 2d# 2f# 2b	.
2r	4r	[
.	4b\	.
!!LO:PB:original
=21	=21	=21
*k[f#c#g#d#]	*k[f#c#g#d#]	*
*M3/4	*M3/4	*
*	*^	*
!	!LO:TX:i:a:t=Allegro.	!	!
4EE/ 4E	2cc#/	4r	p <
4G#\ 4B	.	4e\ 4g#	.
4r	4b/	4r	.
=22	=22	=22	=22
4GG#/ 4G#	2a#X/	4r	.
4G#\ 4B	.	4e\ 4g#	.
4r	4b/	4r	.
=23	=23	=23	=23
4FF#/ 4F#	[2.dd#/	4r	.
4F#\ 4A 4B 4d#	.	4f#\ 4an	.
4F#\ 4A 4B 4d#	.	4f#\ 4a	.
=24	=24	=24	=24
4BBB/ 4BB	2dd#/]	4r	[
4F#\ 4A 4B 4d#	.	4f#\ 4a	.
4r	(4cc#/	4r	.
=25	=25	=25	=25
4DD#/ 4D#	2b/	4r	>
4D#\ 4F# 4A 4B	.	4d#\ 4f#	.
4r	4a/	4r	.
*	*v	*v	*
=26	=26	=26
4BBB/ 4BB	2e#X/	.
4D#\ 4F# 4A 4B	.	.
4r	4f#/	.
=27	=27	=27
*	*^	*
4EE/ 4E	[2.g#/	4r	.
4E\ 4G#	.	4B\ 4e	.
4E\ 4G#	.	4B\ 4e	.
!!LO:LB:g=original
=28	=28	=28	=28
4BB/	2g#/])	4r	]
4E\ 4G#	.	4B\ 4e	.
4r	4b/	4r	.
=29	=29	=29	=29
4EE/ 4E	2cc#/	4r	<
4G#\ 4B	.	4e\ 4g#	.
4r	4b/	4r	.
=30	=30	=30	=30
4GG#/ 4G#	2a#X/	4r	.
4G#\ 4B	.	4e\ 4g#	.
4r	4b/	4r	.
=31	=31	=31	=31
4FF#/ 4F#	[2.dd#/	4r	.
4F#\ 4B	.	4d#\ 4f# 4b	.
4F#\ 4B	.	4d#\ 4f# 4b	.
=32	=32	=32	=32
4F#\	2dd#/]	4r	.
4B\	.	4d#\ 4f# 4b	.
4r	(4dd#/	4r	.
=33	=33	=33	=33
4FFF#/ 4FF#	2ff#/	4r	.
4A#X\ 4e	.	4f#\ 4a#X	.
4r	4cc#/	4r	.
=34	=34	=34	=34
4F#\	2dd#/	4r	.
4A#X\ 4e	.	4f#\ 4a#X	.
4r	4ee/	4r	.
!!LO:LB:g=original
=35	=35	=35	=35
4BBB/ 4BB	2.ff#/)	4r	[ >
4F#\ 4An 4B 4d#	.	4f#\ 4an	.
4F#\ 4A 4B 4d#	.	4f#\ 4a	.
*	*v	*v	*
=36	=36	=36
4B\	4f#/ 4a (>4dd#	.
4c#\	4f#/ 4a 4cc#	.
4d#\	4f#/ 4a 4b)	]]
=37	=37	=37
*	*^	*
4EE/ 4E	2cc#/	4r	<
4G#\ 4B	.	4e\ 4g#	.
4r	4b/	4r	.
=38	=38	=38	=38
4GG#/ 4G#	2a#X/	4r	.
4G#\ 4B	.	4e\ 4g#	.
4r	4b/	4r	.
=39	=39	=39	=39
4FF#/ 4F#	[2.dd#/	4r	.
4F#\ 4A 4B 4d#	.	4f#\ 4an	.
4F#\ 4A 4B 4d#	.	4f#\ 4a	.
=40	=40	=40	=40
4BBB/ 4BB	2dd#/]	4r	.
4F#\ 4A 4B 4d#	.	4f#\ 4a	.
4r	4cc#/	4r	.
=41	=41	=41	=41
4DD#/ 4D#	(2b/	4r	[ >
4D#\ 4F# 4A 4B	.	4d#\ 4f#	.
4r	4a/	4r	.
*	*v	*v	*
!!LO:LB:g=original
=42	=42	=42
4BBB/ 4BB	2e#X/	.
4D#\ 4F# 4A 4B	.	.
4r	4f#/	.
=43	=43	=43
*>C1	*	*
*	*^	*
4EE/ 4E	[2.g#/	4r	.
4E\ 4G#	.	4B\ 4e	.
4E\ 4G#	.	4B\ 4e	]
=44	=44	=44	=44
4BB/	2g#/])	4r	<
4E\ 4G#	.	4B\ 4e	.
4r	4g#/	4r	.
*	*v	*v	*
=45	=45	=45
.	(8qb/	.
4BBB#X/ 4BB#X	(>2a/)	.
4F#\ 4G# 4B#X	.	.
4F#\ 4G# 4B#	4g#/	.
=46	=46	=46
4D#\	2f##X/	.
4F#\ 4G# 4B#X	.	.
4F#\ 4G# 4B#	4g#/	.
=47	=47	=47
4CC#/ 4C#	[2.e:/ [2.g#: [2.ee:	[[
4E\ 4G# 4c#	.	.
4E\ 4G# 4c#	.	.
=48	=48	=48
4C#/	4e/]) 4g#] 4ee]	.
4E\ 4G# 4c#	4g#/	.
4r	4gn/	.
!!LO:LB:g=original
=49	=49	=49
4FF#/ 4F#	(>2f#/	>
4A#X\ 4e	.	.
4A#\ 4e	4f#/ 4a#X	.
=50	=50	=50
4F#\	2f#/ 2a#X 2dd#	.
4A#X\ 4e	.	.
4A#\ 4e	4f#/ 4a# 4cc#	.
=51	=51	=51
4BBB/ 4BB	2.d#/) 2.f# 2.b	.
4D#\ 4F# 4B	.	.
4D#\ 4F# 4B	.	.
=52	=52	=52
(4F#\ 4An	4r	.
4E\ 4G#	4r	.
4BB\) 4F#	4b\	]]
=53||	=53||	=53||
*>C2	*	*
*	*^	*
4EE/ 4E	[2.g#/	4r	.
4E\ 4G#	.	4B\ 4e	.
4E\ 4G#	.	4B\ 4e	.
=54	=54	=54	=54
4BB/	2g#/]	4r	<
4E\ 4G#	.	4B\ 4e	.
4r	4b/	4r	.
=55	=55	=55	=55
4EE/ 4E	2cc#/	4r	.
4G#\ 4B	.	4e\ 4g#	.
4r	4b/	4r	.
!!LO:LB:g=original
=56	=56	=56	=56
4GG#/ 4G#	2ff#/	4r	[
4G#\ 4B 4e	.	4g#\ 4b	.
4r	4ee/	4r	.
=57	=57	=57	=57
4AA\ 4A	2.cc#/	4r	.
4E\ 4A 4c#	.	4e\ 4a	.
4E\ 4A 4c#	.	4e\ 4a	.
=58	=58	=58	=58
4AA#X\ 4A#X	(4cc#/	2.e\ 2.gn	<
4E\ 4Gn 4A# 4c#	4dd#/	.	.
4E\ 4G 4A# 4c#	4ee/)	.	.
*	*v	*v	*
=59	=59	=59
4BB\ 4B	2a\ 2ee	[ >
4G#X\ 4B 4e	.	.
4r	4g#/	]]
=60	=60	=60
4BBB/ 4BB	2a\ 2cc#	>
4F#\ 4A 4B 4d#	.	.
4r	4d#/	.
=61	=61	=61
*	*^	*
4EE/ 4E	2.e/	4r	.
4BB/	.	4G#\ 4B	.
4GG#/	.	4G#\ 4B	.
*	*v	*v	*
=62	=62	=62
4EE/ 4E	4G#/ 4B 4e	.
4r	4r	]
4r	4r	.
!!LO:PB:g=original
=63||	=63||	=63||
*>C	*	*
(4E\ 4e	4.g#\ 4.b 4.ee 4.gg#	f
4D#\ 4d#	.	.
.	8g#\ 8b 8ee 8gg#	.
4E\) 4e	4g#\ 4b 4ee 4gg#	.
=64	=64	=64
(4C#\ 4c#	4.g#\ 4.b 4.ee 4.gg#	>
4BB#X\ 4B#X	.	.
.	8g#\ 8b 8ee 8gg#	.
4C#\) 4c#	4g#\ 4b 4ee 4gg#	.
=65	=65	=65
4AA\ 4A	4.a\ 4.cc# 4.gg#	.
4c#\ 4e 4f#	.	.
.	8a\ 8cc# 8ff#	.
4c#\ 4e 4f#	4a\ 4cc# 4ff#	.
=66	=66	=66
4A\	2.a\ 2.cc#	]]
4c#\ 4e 4f#	.	.
4c#\ 4e 4f#	.	.
=67	=67	=67
(4D#\ 4d#	4.a\ 4.b 4.dd# 4.ff#	f
4C##X\ 4c##X	.	.
.	8a\ 8b 8dd# 8ff#	.
4D#\) 4d#	4a\ 4b 4dd# 4ff#	.
=68	=68	=68
(4BB\ 4B	4.a\ 4.b 4.dd# 4.ff#	.
4AA#X\ 4A#X	.	.
.	8a\ 8b 8dd# 8ff#	.
4BB\) 4B	4a\ 4b 4dd# 4ff#	.
!!LO:LB:g=original
=69	=69	=69
4EE/ 4E	4.g#\ 4.b 4.ff#	>
4G#\ 4B 4e	.	.
.	8g#\ 8b 8ee	.
4G#\ 4B 4e	4g#\ 4b 4ee	.
=70	=70	=70
4E\	2.g#\ 2.b	]]
4G#\ 4B 4e	.	.
4G#\ 4B 4e	.	.
=71	=71	=71
4EE/ 4E	4r	p
4G#\ 4B 4e	4f##X/	<
4G#\ 4B 4e	8g#/L	.
.	8g#/J	.
=72	=72	=72
4E\	2g#\ 2dd#	.
4G#\ 4B 4e	.	.
4G#\ 4B 4e	4g#\ 4cc#	[[
=73	=73	=73
4FF#/ 4F#	2.a\ 2.cc#	>
4A\ 4B 4d#	.	.
4A\ 4B 4d#	.	.
=74	=74	=74
4F#\	2.d#/	]]
4A\ 4B	.	.
4A\ 4B	.	.
!!LO:LB:g=original
=75	=75	=75
4BBB/ 4BB	4r	.
4A\ 4B 4d#	4e#X/	<
4A\ 4B 4d#	8f#/L	.
.	8f#/J	.
=76	=76	=76
4F#\	2a\ 2dd#	.
4A\ 4B 4d#	.	.
4A\ 4B 4d#	4a\ 4cc#	[[
=77	=77	=77
4EE/ 4E	2.en/ 2.g# 2.cc#	>
4G#\ 4B	.	.
4G#\ 4B	.	.
=78	=78	=78
4E\	2.e/ 2.g#	]]
4G#\ 4B	.	.
4G#\ 4B	.	.
=79	=79	=79
(4E\ 4e	4.g#\ 4.b 4.ee 4.gg#	f
4D#\ 4d#	.	.
.	8g#\ 8b 8ee 8gg#	.
4E\) 4e	4g#\ 4b 4ee 4gg#	.
=80	=80	=80
(4C#\ 4c#	4.g#\ 4.b 4.ee 4.gg#	.
4BB#X\ 4B#X	.	.
.	8g#\ 8b 8ee 8gg#	.
4C#\) 4c#	4g#\ 4b 4ee 4gg#	.
!!LO:LB:g=original
=81	=81	=81
4AA\ 4A	4.a\ 4.cc# 4.gg#	<
4c#\ 4e 4f#	.	.
.	8a\ 8cc# 8ff#	.
4c#\ 4e 4f#	4a\ 4cc# 4ff#	[[
=82	=82	=82
4A\	2.a\ 2.cc# 2.ff# 2.aa	>]
4c#\ 4e 4f#	.	.
4c#\ 4e 4f#	.	.
=83	=83	=83
(4D#\ 4d#	4.a\ 4.b 4.dd# 4.ff#	<
4C##X\ 4c##X	.	.
.	8a\ 8b 8dd# 8ff#	.
4D#\) 4d#	4a\ 4b 4dd# 4ff#	.
=84	=84	=84
(4BB\ 4B	4.a\ 4.b 4.dd# 4.ff#	.
4AA#X\ 4A#X	.	.
.	8a\ 8b 8dd# 8ff#	.
4BB\) 4B	4a\ 4b 4dd# 4ff#	[[
=85	=85	=85
4EE/ 4E	4.g#\ 4.b 4.ff#	>
4G#\ 4B 4e	.	.
.	8g#\ 8b 8ee	.
4G#\ 4B 4e	4g#\ 4b 4ee	.
=86	=86	=86
4E\	2.g#\ 2.b 2.ee 2.gg#	]]
4G#\ 4B 4e	.	.
4G#\ 4B 4e	.	.
!!LO:LB:g=original
=87	=87	=87
4CC#/ 4C#	4.b\ 4.ee#X 4.bb	ff <
4B\ 4c# 4e#X	.	.
.	8b\ 8ee# 8bb	.
4B\ 4c# 4e#	4b\ 4ee# 4bb	.
=88	=88	=88
4G#\	4b\ 4ee#X 4bb	.
4B\ 4c# 4e#X	4b\ 4ee# 4aa	.
4B\ 4c# 4e#	4b\ 4ee# 4gg#	.
=89	=89	=89
4FF#/ 4F#	2.cc#\ 2.ff# 2.aa 2.ccc#	[[
4A\ 4c# 4f#	.	.
4A\ 4c# 4f#	.	.
=90	=90	=90
4F#\	(4a\ 4cc#	.
4A\ 4c# 4f#	4a\ 4dd#	.
4A\ 4c# 4f#	4a\) 4ee	.
=91	=91	=91
4BBB/ 4BB	(2.a\ 2.b 2.dd# 2.gg#	>
4A\ 4B 4d#	.	.
4A\ 4B 4d#	.	.
!!LO:LB:g=original
=92	=92	=92
4F#\	2a\) 2b 2dd# 2ff#	.
4A\ 4B 4d#	.	.
4A\ 4B 4d#	4a/ 4b	.
=93	=93	=93
*>C1	*	*
4E\ 4e	[2.g#\ [2.b [2.ee	.
4BB\ 4B	.	.
4GG#/ 4G#	.	.
=94	=94	=94
4EE/ 4E	4g#\] 4b] 4ee]	.
4r	4r	]
4r	4b\	f
=95:|!	=95:|!	=95:|!
*>C2	*	*
4E\ 4e	[2.g#\ [2.b [2.ee	.
4BB\ 4B	.	.
4GG#/ 4G#	.	.
=96	=96	=96
4EE/ 4E	4g#\] 4b] 4ee]	.
4r	4r	.
4r	4e/	.
!!LO:PB:g=original
=97||	=97||	=97||
*>D	*	*
*k[f#c#g#dn]	*k[f#c#g#dn]	*
4AAA/ 4AA	(2e/	p
4E\ 4A 4c#	.	.
4E\ 4A 4c#	4cc#\	.
=98	=98	=98
.	(16qqdd/LL	.
.	16qqee/JJ	.
4AAA#X/ 4AA#X	2dd\)	.
4E\ 4G# 4A#X 4c#	.	.
4E\ 4G# 4A# 4c#	4cc#\	.
=99	=99	=99
4BBB/ 4BB	[2.e/ [2.g# [>2.b [2.dd [2.ee	.
4G#\ 4B 4d	.	.
4G#\ 4B 4d	.	.
=100	=100	=100
4E\	2.e/]) 2.g#] 2.b] 2.dd] 2.ee]	.
4G#\ 4B 4d	.	.
4G#\ 4B 4d	.	.
=101	=101	=101
4BBB/ 4BB	(2e/	<
4G#\ 4B 4d	.	.
4G#\ 4B 4d	4b\	.
=102	=102	=102
.	(16qqcc#/LL	.
.	16qqdd/JJ	.
4E\	2cc#\)	.
4G#\ 4B 4d	.	.
4G#\ 4B 4d	4b\	.
!!LO:LB:g=original
=103	=103	=103
4CC#/ 4C#	[2.e/ [2.a [2.cc# [2.ee	.
4E\ 4A 4c#	.	.
4E\ 4A 4c#	.	[[
=104	=104	=104
4E\	2.e/]) 2.a] 2.cc#] 2.ee]	.
4A\ 4c#	.	.
4A\ 4c#	.	.
=105	=105	=105
4AAA/ 4AA	4a\ 4cc# 4ee 4aa	>
4E\ 4A 4c#	4r	.
4r	4g#\ 4cc# 4ee 4gg#	.
=106	=106	=106
4CC#/ 4C#	4f#\ 4cc# 4ee 4ff#	.
4E\ 4A 4c#	4r	.
4r	4a\ 4cc# 4ee 4aa	]]
=107	=107	=107
4BBB/ 4BB	[2.g#\ [2.dd [2.ee [2.gg#	.
4G#\ 4B 4d	.	.
4G#\ 4B 4d	.	.
=108	=108	=108
4E\	2.g#\] 2.dd] 2.ee] 2.gg#]	>
4G#\ 4B 4d	.	.
4G#\ 4B 4d	.	.
!!LO:LB:g=original
=109	=109	=109
4EE/ 4E	4f#:\ 4b: 4dd: 4ff#:	.
4G#\ 4B 4d	4r	.
4G#\ 4B 4d	4e#X\ 4b 4dd 4ee#X	.
=110	=110	=110
4E\	4f#\ 4b 4dd 4ff#	.
4G#\ 4B 4d	4r	.
4r	4g#\ 4b 4dd 4gg#	.
=111	=111	=111
4AAA/ 4AA	[2.en/ [2.a [2.cc# [2.een	.
4A\ 4c#	.	.
4A\ 4c#	.	.
=112	=112	=112
4E\	2.e/] 2.a] 2.cc#] 2.ee]	]]
4A\ 4c#	.	.
4A\ 4c#	.	.
=113	=113	=113
4AAA/ 4AA	(2e/	<
4E\ 4A 4c#	.	.
4E\ 4A 4c#	4cc#\	.
=114	=114	=114
.	(16qqdd/LL	.
.	16qqee/JJ	.
4AAA#X/ 4AA#X	2dd\)	.
4E\ 4G# 4A#X 4c#	.	.
4E\ 4G# 4A# 4c#	4cc#\	.
!!LO:LB:g=original
=115	=115	=115
4BBB/ 4BB	[2.f#\ [2.b [2.dd [2.ff#	[[
4F#\ 4B 4d	.	.
4F#\ 4B 4d	.	.
=116	=116	=116
4F#\	2.f#\]) 2.b] 2.dd] 2.ff#]	.
4B\ 4d	.	.
4B\ 4d	.	.
=117	=117	=117
4GG#/ 4G#	(2e/	>
4G#\ 4B 4d	.	.
4G#\ 4B 4d	4b\	.
=118	=118	=118
.	(16qqcc#/LL	.
.	16qqdd/JJ	.
4E\	2cc#\)	.
4G#\ 4B 4d	.	.
4G#\ 4B 4d	4b\	.
=119	=119	=119
4CC#/ 4C#	[2.e/ [2.a [<2.cc# [<2.ee	.
4A\ 4c#	.	.
4A\ 4c#	.	.
=120	=120	=120
4E\	2.e/]) 2.a] 2.cc#] 2.ee]	]]
4A\ 4c#	.	.
4A\ 4c#	.	.
!!LO:LB:g=original
=121	=121	=121
4FFFn/ 4FFn	2a\ 2dd#X 2aa	f
4A\ 4cn 4d#X	.	.
4A\ 4c 4d#	[4a\ [<4dd# [4aa	.
=122	=122	=122
4Fn\	4a\] 4dd#X] 4aa]	.
4A\ 4cn 4d#X	4.a\ 4.dd# 4.aa	.
4A\ 4c 4d#	.	.
.	8a\ 8dd# 8aa	.
=123	=123	=123
4EEE/ 4EE	2.a\ 2.cc# 2.aa	.
4A\ 4c#X 4e	.	.
4A\ 4c# 4e	.	.
=124	=124	=124
4E\	4a\ 4cc# 4ee	.
4A\ 4c# 4e	4r	.
4r	4a\ 4cc#	.
=125	=125	=125
4EEE/ 4EE	2.g#\ 2.dd 2.ff#	>
4G#\ 4B 4d 4e	.	.
4G#\ 4B 4d 4e	.	]]
!!LO:LB:g=original
=126	=126	=126
4E\	4g#\ 4dd 4ee	>
4G#\ 4B 4d 4e	4r	.
4r	4d/ 4e 4g#	.
=127	=127	=127
*>D1	*	*
4AA\ 4A	[2.c#/ [2.e [2.a	]]
4E\	.	.
4C#/	.	.
=128	=128	=128
4AAA/ 4AA	4c#/] 4e] 4a]	.
4r	4r	.
4r	4e/	.
=129:|!	=129:|!	=129:|!
*>D2	*	*
4AA\ 4A	[2.c#/ [>2.e [2.a	.
4E\	.	.
4C#/	.	.
=130	=130	=130
4AAA/ 4AA	4c#/] 4e] 4a]	.
4r	4r	.
4r	4b\	.
!!LO:PB:g=original
=131||	=131||	=131||
*>E	*	*
*k[f#c#g#d#]	*k[f#c#g#d#]	*
*	*^	*
4EE/ 4E	2cc#/	4r	p <
4G#\ 4B	.	4e\ 4g#	.
4r	4b/	4r	.
=132	=132	=132	=132
4GG#/ 4G#	2a#X/	4r	.
4G#\ 4B	.	4e\ 4g#	.
4r	4b/	4r	.
=133	=133	=133	=133
4FF#/ 4F#	[2.dd#/	4r	[
4F#\ 4A 4B 4d#	.	4f#\ 4an	.
4F#\ 4A 4B 4d#	.	4f#\ 4a	.
=134	=134	=134	=134
4BBB/ 4BB	2dd#/]	4r	.
4F#\ 4A 4B 4d#	.	4f#\ 4a	.
4r	4cc#/	4r	.
=135	=135	=135	=135
4DD#/ 4D#	(2b/	4r	>
4D#\ 4F# 4A 4B	.	4d#\ 4f#	.
4r	4a/	4r	.
*	*v	*v	*
=136	=136	=136
4BBB/ 4BB	2e#X/	.
4D#\ 4F# 4A 4B	.	.
4r	4f#/	.
=137	=137	=137
*	*^	*
4EE/ 4E	[2.g#/	4r	.
4E\ 4G#	.	4B\ 4e	.
4E\ 4G#	.	4B\ 4e	.
!!LO:LB:g=original
=138	=138	=138	=138
4BB/	2g#/])	4r	.
4E\ 4G#	.	4B\ 4e	.
4r	4b/	4r	]
=139	=139	=139	=139
4EE/ 4E	2cc#/	4r	<
4G#\ 4B	.	4e\ 4g#	.
4r	4b/	4r	.
=140	=140	=140	=140
4GG#/ 4G#	2a#X/	4r	.
4G#\ 4B	.	4e\ 4g#	.
4r	4b/	4ryy	.
=141	=141	=141	=141
4FF#/ 4F#	[2.dd#/	4r	.
4F#\ 4B	.	4d#\ 4f# 4b	.
4F#\ 4B	.	4d#\ 4f# 4b	[[
=142	=142	=142	=142
4F#\	2dd#/]	4r	<
4B\	.	4d#\ 4f# 4b	.
4r	4dd#/	4r	.
=143	=143	=143	=143
4FFF#/ 4FF#	(2ff#/	4r	.
4A#X\ 4e	.	4f#\ 4a#X	.
4r	4cc#/	4r	.
=144	=144	=144	=144
4F#\	2dd#/	4r	.
4A#X\ 4e	.	4f#\ 4a#X	.
4r	4ee/	4r	[[
!!LO:LB:g=original
=145	=145	=145	=145
4BBB/ 4BB	2.ff#/)	4r	.
4F#\ 4An 4B 4d#	.	4f#\ 4an	.
4F#\ 4A 4B 4d#	.	4f#\ 4a	.
*	*v	*v	*
=146	=146	=146
(4B\	4f#/ 4a (>4dd#	>
4c#\	4f#/ 4a 4cc#	.
4d#\)	4f#/ 4a 4b)	]]
=147	=147	=147
*	*^	*
4EE/ 4E	2cc#/	4r	<
4G#\ 4B	.	4e\ 4g#	.
4r	4b/	4r	.
=148	=148	=148	=148
4GG#/ 4G#	2a#X/	4r	.
4G#\ 4B	.	4e\ 4g#	.
4r	4b/	4r	.
=149	=149	=149	=149
4FF#/ 4F#	[2.dd#/	4r	.
4F#\ 4A 4B 4d#	.	4f#\ 4an	.
4F#\ 4A 4B 4d#	.	4f#\ 4a	.
=150	=150	=150	=150
4BBB/ 4BB	2dd#/]	4r	[
4F#\ 4A 4B 4d#	.	4f#\ 4a	.
4r	4cc#/	4r	.
=151	=151	=151	=151
4DD#/ 4D#	(2b/	4r	>
4D#\ 4F# 4A 4B	.	4d#\ 4f#	.
4r	4a/	4r	.
*	*v	*v	*
!!LO:LB:g=original
=152	=152	=152
4BBB/ 4BB	2e#X/	.
4D#\ 4F# 4A 4B	.	.
4r	4f#/	.
=153	=153	=153
*	*^	*
4EE/ 4E	[2.g#/	4r	.
4E\ 4G#	.	4B\ 4e	.
4E\ 4G#	.	4B\ 4e	.
=154	=154	=154	=154
4BB/	2g#/])	4r	]
4E\ 4G#	.	4B\ 4e	.
4r	4b/	4r	<
=155	=155	=155	=155
4EE/ 4E	2cc#/	4r	.
4G#\ 4B	.	4e\ 4g#	.
4r	4b/	4r	.
=156	=156	=156	=156
4GG#/ 4G#	2ff#/	4r	.
4G#\ 4B 4e	.	4g#\ 4b	.
4r	4ee/	4r	.
=157	=157	=157	=157
4AA\ 4A	2.cc#/	4r	.
4E\ 4A 4c#	.	4e\ 4a	.
4E\ 4A 4c#	.	4e\ 4a	.
=158	=158	=158	=158
4AA#X\ 4A#X	(4cc#/	2.e\ 2.gn	.
4E\ 4Gn 4A# 4c#	4dd#/	.	.
4E\ 4G 4A# 4c#	4ee/)	.	.
*	*v	*v	*
!!LO:LB:g=original
=159	=159	=159
4BB\ 4B	2g#X\ 2ee	[ <
4G#\ 4B 4e	.	.
4G#\ 4B 4e	4g#/	.
=160	=160	=160
!	!LO:TX:b:t=molto rit.	!
4BBB/ 4BB	2b\	.
4F#\ 4A 4B 4d#	.	.
4F#;Z\ 4A 4B 4d#	4b\ 4dd# 4ff# 4bb	[[
=161	=161;	=161;
!	!LO:TX:B:a:t=Vivace.	!
*	*tremolo	*
(4E\ 4e	(16gg#\LL 16bb 16eee	ff
.	16ee\	.
.	16gg#\ 16bb 16eee	.
.	16ee\	.
4D#\ 4d#	16gg#\ 16bb 16eee	.
.	16ee\	.
.	16gg#\ 16bb 16eee	.
.	16ee\	.
4E\) 4e	16gg#\ 16bb 16eee	.
.	16ee\	.
.	16gg#\ 16bb 16eee	.
.	16ee\JJ)	.
=162	=162	=162
(4C#\ 4c#	(16gg#\LL 16ccc# 16eee	.
.	16ee\	.
.	16gg#\ 16ccc# 16eee	.
.	16ee\	.
4BB#X\ 4B#X	16gg#\ 16ccc# 16eee	.
.	16ee\	.
.	16gg#\ 16ccc# 16eee	.
.	16ee\	.
4C#\) 4c#	16gg#\ 16ccc# 16eee	.
.	16ee\	.
.	16gg#\ 16ccc# 16eee	.
.	16ee\JJ)	.
=163	=163	=163
(4AA\ 4A	(16aa\LL 16ccc# 16eee	.
.	16ee\	.
.	16aa\ 16ccc# 16eee	.
.	16ee\	.
4GG#\ 4G#	16aa\ 16ccc# 16eee	.
.	16ee\	.
.	16aa\ 16ccc# 16eee	.
.	16ee\	.
4AA\) 4A	16aa\ 16ccc# 16eee	.
.	16ee\	.
.	16aa\ 16ccc# 16eee	.
.	16ee\JJ)	.
!!LO:PB:g=original
=164	=164	=164
(4FF#/ 4F#	(16aa\LL 16ccc# 16fff#	.
.	16ee\	.
.	16aa\ 16ccc# 16fff#	.
.	16ee\	.
4EE#X/ 4E#X	16aa\ 16ccc# 16fff#	.
.	16ee\	.
.	16aa\ 16ccc# 16fff#	.
.	16ee\	.
4FF#/) 4F#	16aa\ 16ccc# 16fff#	.
.	16ee\	.
.	16aa\ 16ccc# 16fff#	.
.	16ee\JJ)	.
!!LO:LB:g=original
=165	=165	=165
*	*8va	*
(4BBB/ 4BB	(16ddd#\LL 16fff# 16bbb	.
.	16bb\	.
.	16ddd#\ 16fff# 16bbb	.
.	16bb\	.
4AAA#X/ 4AA#X	16ddd#\ 16fff# 16bbb	.
.	16bb\	.
.	16ddd#\ 16fff# 16bbb	.
.	16bb\	.
4BBB/ 4BB	16ddd#\ 16fff# 16bbb	.
.	16bb\	.
.	16ddd#\ 16fff# 16bbb	.
.	16bb\JJ)	.
=166	=166	=166
4BBB#X/ 4BB#X	(16ddd#\LL 16fff# 16bbb	.
.	16bb\	.
.	16ddd#\ 16fff# 16bbb	.
.	16bb\	.
4CC#/ 4C#	16ddd#\ 16fff# 16bbb	.
.	16bb\	.
.	16ddd#\ 16fff# 16bbb	.
.	16bb\	.
4DD#/ 4D#	16ddd#\ 16fff# 16bbb	.
.	16bb\	.
.	16ddd#\ 16fff# 16bbb	.
.	16bb\JJ)	.
=167	=167	=167
4EE/) 4E	4eee\ 4ggg# 4bbb 4eeee	.
*	*X8va	*
4r	4r	.
4r	4r	.
=168	=168	=168
2E\ 2B 2e	2g#\ 2b 2ee 2gg#	.
4r	4r	.
=169	=169	=169
8qEEE/ 8qEE	8qE/ 8qG# 8qB 8qe	.
[2.EEE/ [2.EE	[2.E/ [2.G# [2.B [2.e	.
=170	=170	=170
4EEE;</] 4EE]	4E;/] 4G#] 4B] 4e]	.
!	!LO:TX:b:t=Fine.	!
2r	2r	.
==	==	==
*-	*-	*-
!!!system-decoration: {(s1,s2)}
!!!RDF**kern: > = above
!!!RDF**kern: < = below
!!!ENC: Andrzej Gręziak
!!!END: 2023-09-09
!!!ENC: Leszek Kubiak
!!!END: 2023-09-30
